X:58
T:Parsal y Fesur
M:3/4
L:1/8
Q:140
C:Trad. arr. Ceri Rhys Matthews
R:Waltz
N:Ceri had this in D major from the Anglesey harpist Llio Rhydderch who
N:learned it from Nancy Richards as a finger exercise
K:G
GF | E2 EF GA | B2 BA GB | A2 AG FA | GA G F ED|
E2 EF GA | B2 BA GB | AG FA GF | E4 :||
GA | BG EB GE | AF DA FD | BG EB GE |
AF DA FD | EG FE D2 | EG FE D2 | E2 EF GA|
B2 BA GB | AG FA GF | E4 :||
